packages/icons/src/finger-touch.svg

<svg width="24" height="24" viewBox="0 0 24 24" fill="none" xmlns="http://www.w3.org/2000/svg">
<path d="M7.15498 8.5C6.93831 8.13333 6.77165 7.7375 6.65498 7.3125C6.53831 6.8875 6.47998 6.45 6.47998 6C6.47998 4.61667 6.96748 3.4375 7.94248 2.4625C8.91748 1.4875 10.0966 1 11.48 1C12.8633 1 14.0425 1.4875 15.0175 2.4625C15.9925 3.4375 16.48 4.61667 16.48 6C16.48 6.45 16.4216 6.8875 16.305 7.3125C16.1883 7.7375 16.0216 8.13333 15.805 8.5L14.08 7.5C14.2133 7.26667 14.3133 7.02917 14.38 6.7875C14.4466 6.54583 14.48 6.28333 14.48 6C14.48 5.16667 14.1883 4.45833 13.605 3.875C13.0216 3.29167 12.3133 3 11.48 3C10.6466 3 9.93831 3.29167 9.35498 3.875C8.77165 4.45833 8.47998 5.16667 8.47998 6C8.47998 6.28333 8.51331 6.54583 8.57998 6.7875C8.64665 7.02917 8.74665 7.26667 8.87998 7.5L7.15498 8.5Z" fill="black"/>
<path d="M19.98 15.82L19.35 20.28C19.21 21.27 18.36 22 17.37 22H11.21C10.68 22 9.92 21.79 9.55 21.41L5 16.62L5.83 15.78C6.07 15.54 6.41 15.43 6.75 15.5L10 16.24V5.5C10 4.67 10.67 4 11.5 4C12.33 4 13 4.67 13 5.5V11.5H13.91C14.22 11.5 14.53 11.57 14.8 11.71L18.89 13.75C19.66 14.14 20.1 14.97 19.98 15.82Z" fill="black"/>
</svg>

<svg xmlns="http://www.w3.org/2000/svg" width="24" height="24" fill="none" viewBox="0 0 24 24">
  <path fill="#000" d="M7.155 8.5A4.935 4.935 0 0 1 6.48 6c0-1.383.487-2.563 1.462-3.538C8.917 1.487 10.097 1 11.48 1s2.563.488 3.537 1.462c.976.975 1.463 2.155 1.463 3.538a4.938 4.938 0 0 1-.675 2.5l-1.725-1c.133-.233.233-.47.3-.713.067-.241.1-.504.1-.787 0-.833-.292-1.542-.875-2.125A2.893 2.893 0 0 0 11.48 3c-.833 0-1.542.292-2.125.875A2.893 2.893 0 0 0 8.48 6c0 .283.033.546.1.787.067.242.167.48.3.713l-1.725 1Z"/>
  <path fill="#000" d="m19.98 15.82-.63 4.46c-.14.99-.99 1.72-1.98 1.72h-6.16c-.53 0-1.29-.21-1.66-.59L5 16.62l.83-.84c.24-.24.58-.35.92-.28l3.25.74V5.5c0-.83.67-1.5 1.5-1.5s1.5.67 1.5 1.5v6h.91c.31 0 .62.07.89.21l4.09 2.04c.77.39 1.21 1.22 1.09 2.07Z"/>
</svg>
